packages/icons/svg/24/Video.svg

<svg width="24" height="24" viewBox="0 0 24 24" fill="none" xmlns="http://www.w3.org/2000/svg">
<path fill-rule="evenodd" clip-rule="evenodd" d="M3 7C3 5.34315 4.34315 4 6 4H18C19.6569 4 21 5.34315 21 7V17C21 18.6569 19.6569 20 18 20H6C4.34315 20 3 18.6569 3 17V7ZM9 8.7484C9 7.97499 9.84039 7.49433 10.507 7.88647L16.0347 11.1381C16.692 11.5247 16.692 12.4753 16.0347 12.8619L10.507 16.1135C9.84039 16.5056 9 16.025 9 15.2516V8.7484Z" fill="#858585"/>
</svg>

<svg width="24" height="24" fill="none" xmlns="http://www.w3.org/2000/svg" viewBox="0 0 24 24"><path fill-rule="evenodd" clip-rule="evenodd" d="M3 7a3 3 0 013-3h12a3 3 0 013 3v10a3 3 0 01-3 3H6a3 3 0 01-3-3V7zm6 1.748a1 1 0 011.507-.862l5.528 3.252a1 1 0 010 1.724l-5.528 3.251A1 1 0 019 15.252V8.748z" fill="currentColor"></path></svg>
